X:1
T:Auf dich, o Herr, vertrauet meine Seele
T:Bernhard Klein
T:Auf dich, o Herr, vertrauet meine Seele
T:Schlussteil von Op. 23, No. 7
T:CPDL   —   Creative Commons Attribution Non Commercial 3.0
T:CPDL   —   Creative Commons Attribution Non Commercial 3.0
C:
C:Bernhard Klein
Z:CPDL   —   Creative Commons Attribution Non Commercial 3.0
%%score [ ( 1 2 ) ( 3 4 ) ]
L:1/8
Q:1/4=120
M:4/4
K:D
V:1 treble-8 nm="Tenor"
V:2 treble-8 
V:3 bass nm="Bass"
V:4 bass 
V:1
"^Adagio non troppo, legato"!f! A2 | f4 d4 | c4 z2 c2 | d2 c2 d2{f} e2 | d4 !breath!c2 A2 | g4 f4 | %6
w: Auf|dich, o|Herr, ver-|trau- et mei- ne|See- le, auf|dich, o|
 e4 z2 e2 | d2 c2 d2{f} e2 | (d2 c2) d2 z2 |!>(! e6 d2 | (c2 B2)!>)! A2 A2 |!>(! g6 f2 | %12
w: Herr, ver-|trau- et mei- ne|See- * le;|dein Er-|bar- * men ist|un- er-|
 (e2 d2)!>)! c2 z2 |!<(! d4 e4!<)! | f6!>(! e2 | d4!>)! c4 | (c3 d) c2 | =A2 |!f! f4 d4 | %19
w: mess- * lich,|e- wig|dei- ne|Gnad und|Gü- * te.|Auf|dich, o|
 e4 z2 e2 | g4 e4 | f4 z2 c2 | d2 c2 d2 e2 | f4 f2 f2 |!<(! e2 ^d2 e2 f2!<)! | g4 f2 e2 | %26
w: Herr, auf|dich, o|Herr, ver-|trau- et mei- ne|See- le, ver-|trau- et mei- ne|See- le in|
!>(! d4 c4!>)! | d2!f! z2 z2!f! d2 | g4 d4 | !fermata!d8 |] %30
w: E- wig-|keit, in|E- wig-|keit.|
V:2
 A2 | A4 A4 | A4 x2 A2 | A2 A2 A2 B2 | A4 A2 A2 | e4 d4 | c4 x2 c2 | B2 F2 B2 B2 | A4 A2 x2 | %9
w: |||||||||
 (A2 ^G2 =G2) F2 | (G2 ^G2) A2 A2 | (c2 d2 e2) d2 | B4 A2 x2 | A4 c4 | c6 c2 | B4 B4 | (^A3 B) A2 | %17
w: ||||||||
 A2 | A4 A4 | c4 x2 c2 | B4 B4 | c4 x2 ^A2 | B2 ^A2 B2 c2 | (d2 e2) d2 ^d2 | e2 B2 B2 B2 | %25
w: ||||||||
 (B2 c2) d2 B2 | (A4 A2) G2 | F2 d2 d4- | d4 B4 | A8 |] %30
w: ||* in E-|* wig-|keit.|
V:3
!f! A,2 | A,4 F,4 | E,4 z2 G,2 | F,2 G,2 F,2 G,2 | F,4 !breath!E,2 A,2 | A,4 A,4 | G,4 z2 G,2 | %7
w: |||||||
 F,2 F,2 F,2 G,2 | (F,2 E,2) F,2 z2 |!>(! (C,2 B,,2 C,2) D,2 | (E,2 D,2)!>)! C,2 A,2 | %11
w: ||||
!>(! A,6 D,2 | E,4!>)! E,2 z2 |!<(! F,4 A,4!<)! | F,6!>(! F,2 | F,4!>)! G,4 | F,4 F,2 | F,2 | %18
w: |||||||
!f! D,4 F,4 | A,4 z2 A,2 | E,4 B,4 | ^A,4 z4 | z4 z2 =A,2 | (A,2 ^A,2) B,2 B,2 | %24
w: ||||||
!<(! E,2 F,2 G,2 A,2!<)! | G,4 A,2 G,2 |!>(! F,4 E,4!>)! | D,4 z2!f! D,2 | B,4 G,4 | %29
w: |||* in|E- wig-|
 !fermata!F,8 |] %30
w: keit.|
V:4
 A,2 | D,4 D,4 | A,,4 x2 G,2 | F,2 E,2 D,2 G,,2 | A,,4 A,,2 A,,2 | C,4 D,4 | ^A,,4 x2 A,,2 | %7
w: |||||||
 B,,2 ^A,,2 B,,2 G,,2 | =A,,4 D,2 x2 | A,,6 A,,2 | A,,4 A,,2 C,2 | (A,,2 B,,2 C,2) D,2 | %12
w: |||||
 ^G,,4 A,,2 x2 | D,4 A,,4 | ^A,,6 A,,2 | B,,4 E,4 | F,4 F,,2 | x2 | z4 z2 A,2 | A,6 A,2 | E,4 G,4 | %21
w: ||||||auf|dich, *||
 F,4 x4 | x4 x2 A,2 | (D,2 C,2) B,,2 =A,,2 | G,,2 D,2 E,2 ^D,2 | E,4 =D,2 G,,2 | A,,4 A,,4 | %27
w: ||||||
 D,4 x2 D2 | G,4 G,4 | D,8 |] %30
w: |||

